assets/icons/qvision/collections.svg

<svg xmlns="http://www.w3.org/2000/svg" height="24" viewBox="0 0 24 24" width="24"><path d="M0 0h24v24H0z" fill="none"/><path d="M22 16V4c0-1.1-.9-2-2-2H8c-1.1 0-2 .9-2 2v12c0 1.1.9 2 2 2h12c1.1 0 2-.9 2-2zm-11-4l2.03 2.71L16 11l4 5H8l3-4zM2 6v14c0 1.1.9 2 2 2h14v-2H4V6H2z"/></svg>

<svg width="24" height="24" viewBox="0 0 24 24" fill="none" xmlns="http://www.w3.org/2000/svg">
<g clip-path="url(#clip0_147_3301)">
<path d="M22 16V4C22 2.9 21.1 2 20 2H8C6.9 2 6 2.9 6 4V16C6 17.1 6.9 18 8 18H20C21.1 18 22 17.1 22 16ZM11 12L13.03 14.71L16 11L20 16H8L11 12ZM2 6V20C2 21.1 2.9 22 4 22H18V20H4V6H2Z" fill="#323232"/>
</g>
<defs>
<clipPath id="clip0_147_3301">
<rect width="24" height="24" fill="white"/>
</clipPath>
</defs>
</svg>
